X: 1
T: Kari Trestakk Reinlender
C: trad. efter Ivar Fuglestad
R: shottish
S: Fiddle Hell handout from Vidal Skrede 2021-4-15
Z: 2021 John Chambers <jc:trillian.mit.edu>
M: 12/16
L: 1/16
K: Am
z |\
"Am"(vA2c A2)(uc e2)(vf e2)(d | c2)(c A2)c e3 (e3| "D"f2)(e d2)(c "G"B2)(A G2)A | "Am"c3 (c2B) A3  A3 |
     (A2c A2)(c  e2)(f  e2)(d | c2)(c A2)c e3 e3 |    f3    e3       e2d  (BA)G |     A3  A3   A3- A2 :|
|: (A |\
"D"d2)(c d2)f a3 (a2e | f2)(f e2)d "Am"c3  A3    |    A2c d3A  "G"G3   A3   | "Em"c3 (c2B) "Am"A3  A3 |
"D"d2c   d2f  a3 (a2e | f2)(f e2)d "Am"c3 (A2^c) | "A"e3 (f2e) "G"e2d (BA)G |     A3  A3       A3- A2 :|
